Newaita-dark/apps/48/com.github.rkoesters.xkcd-gtk.svg

<svg height="48" viewBox="0 0 48 48" width="48" xmlns="http://www.w3.org/2000/svg" xmlns:xlink="http://www.w3.org/1999/xlink"><linearGradient id="a"><stop offset="0" stop-opacity=".313726"/><stop offset=".222222" stop-opacity=".27451"/><stop offset="1" stop-opacity="0"/></linearGradient><radialGradient id="b" cx="450.908936" cy="189.579361" gradientTransform="matrix(.00000026 -.117199 -.210958 -.00000015 66.784728 95.392994)" gradientUnits="userSpaceOnUse" r="21.166656" xlink:href="#a"/><radialGradient id="c" cx="450.908936" cy="189.579361" gradientTransform="matrix(-.00000026 .117199 .210958 .00000015 -19.155178 -11.291223)" gradientUnits="userSpaceOnUse" r="21.166656" xlink:href="#a"/><radialGradient id="d" cx="450.908936" cy="189.579361" gradientTransform="matrix(-.00000026 -.117199 .210958 -.00000015 -19.155178 95.392994)" gradientUnits="userSpaceOnUse" r="21.166656" xlink:href="#a"/><radialGradient id="e" cx="450.908936" cy="189.579361" gradientTransform="matrix(.00000026 .117199 -.210958 .00000015 66.784725 -11.291224)" gradientUnits="userSpaceOnUse" r="21.166656" xlink:href="#a"/><linearGradient id="f" gradientTransform="matrix(.0200401 0 0 .093759 18.698079 20.158175)" gradientUnits="userSpaceOnUse" x1="255.323059" x2="255.323044" y1="233.5" y2="254.666656"><stop offset="0" stop-opacity=".27451"/><stop offset="1" stop-opacity="0"/></linearGradient><linearGradient id="g" gradientUnits="userSpaceOnUse" x1="27.7839180001" x2="27.7839180001" y1="42.0509015" y2="4.34415649995"><stop offset="0" stop-color="#bdbdbd"/><stop offset="1" stop-color="#e0e0e0"/></linearGradient><linearGradient id="h" gradientTransform="matrix(.0214835 -.0124035 .0124035 .0214835 -8.833095 14.155944)" gradientUnits="userSpaceOnUse" x1="960" x2="960" y1="1695.118164" y2="175.118134"><stop offset="0" stop-color="#424242"/><stop offset="1" stop-color="#616161"/></linearGradient><path d="m27.289062 42.050781h3.96875v-1.984375h-3.96875zm0 0" fill="url(#b)"/><path d="m20.339844 42.050781h-3.96875v1.984375h3.96875zm0 0" fill="url(#c)"/><path d="m20.339844 42.050781h-3.96875v-1.984375h3.96875zm0 0" fill="url(#d)"/><path d="m27.289062 42.050781h3.96875v1.984375h-3.96875zm0 0" fill="url(#e)"/><path d="m20.339844 41.554688h6.949218v2.480468h-6.949218zm0 0" fill="url(#f)"/><path d="m23.816406 4.34375c10.410156 0 18.851563 8.441406 18.851563 18.855469 0 10.410156-8.441407 18.851562-18.851563 18.851562-10.414062 0-18.855468-8.441406-18.855468-18.851562 0-10.414063 8.441406-18.855469 18.855468-18.855469zm0 0" fill="url(#g)"/><path d="m23.816406 42.050781c-10.445312 0-18.855468-8.410156-18.855468-18.851562 0-.0625 0-.125 0-.1875.101562 10.359375 8.472656 18.667969 18.855468 18.667969 10.382813 0 18.753906-8.308594 18.851563-18.667969v.1875c0 10.441406-8.410157 18.851562-18.851563 18.851562zm0 0" fill-opacity=".196078"/><path d="m23.816406 4.34375c-10.445312 0-18.855468 8.410156-18.855468 18.855469v.183593c.101562-10.359374 8.472656-18.667968 18.855468-18.667968 10.382813 0 18.753906 8.308594 18.851563 18.667968 0-.0625 0-.125 0-.183593 0-10.445313-8.410157-18.855469-18.851563-18.855469zm0 0" fill="#fff" fill-opacity=".392157"/><path d="m23.816406 4.203125c-10.523437 0-18.996094 8.472656-18.996094 18.996094 0 10.519531 8.472657 18.992187 18.996094 18.992187 10.519532 0 18.992188-8.472656 18.992188-18.992187 0-10.523438-8.472656-18.996094-18.992188-18.996094zm0 .28125c10.367188 0 18.710938 8.34375 18.710938 18.714844 0 10.367187-8.34375 18.710937-18.710938 18.710937-10.371094 0-18.714844-8.34375-18.714844-18.710937 0-10.371094 8.34375-18.714844 18.714844-18.714844zm0 0" fill="#212121"/><path d="m15.753906 21.019531c-.953125.546875-1.277344 1.757813-.726562 2.710938l1.984375 3.4375-4.296875 2.480469c-.476563.273437-.636719.878906-.363282 1.355468.273438.476563.878907.636719 1.355469.363282l6.015625-3.472657 10.3125-5.957031 6.015625-3.472656c.476563-.273438.636719-.878906.363281-1.355469-.277343-.472656-.878906-.636719-1.355468-.363281l-4.296875 2.480468-1.984375-3.433593c-.550782-.953125-1.761719-1.277344-2.710938-.726563zm0 0" fill="url(#h)"/><path d="m27.101562 14.796875c-.351562-.007813-.710937.078125-1.035156.269531l-10.3125 5.953125c-.757812.433594-1.117187 1.289063-.957031 2.097657.105469-.542969.4375-1.039063.957031-1.335938l10.3125-5.953125c.949219-.550781 2.160156-.226563 2.710938.726563l1.984375 3.4375 4.296875-2.484376c.476562-.273437 1.078125-.109374 1.355468.363282.019532.039062.039063.078125.054688.117187.117188-.273437.105469-.597656-.054688-.878906-.277343-.472656-.878906-.636719-1.355468-.363281l-4.296875 2.480468-1.984375-3.433593c-.363282-.625-1.007813-.980469-1.675782-.996094zm-10.421874 12.558594-3.964844 2.292969c-.4375.25-.609375.785156-.421875 1.238281.082031-.195313.226562-.363281.421875-.476563l4.296875-2.480468zm0 0" fill="#fff" fill-opacity=".235294"/><path d="m36.320312 18.238281c-.074218.089844-.164062.167969-.269531.226563l-6.015625 3.472656-10.3125 5.957031-6.015625 3.472657c-.429687.246093-.960937.140624-1.265625-.230469-.253906.308593-.304687.753906-.089844 1.125.273438.476562.878907.636719 1.355469.363281l16.328125-9.425781 6.015625-3.476563c.476563-.273437.636719-.878906.363281-1.355468-.027343-.046876-.058593-.089844-.09375-.128907zm-21.457031 5.125c-.175781.519531-.132812 1.109375.164063 1.625l1.4375 2.492188.546875-.3125-1.984375-3.4375c-.070313-.121094-.125-.242188-.164063-.367188zm0 0" fill-opacity=".235294"/><path d="m168.025621 9.186925c-10.165696 5.832776-13.623699 18.748209-7.74926 28.913905l21.164646 36.663166-45.828957 26.455807c-5.082848 2.916388-6.791018 9.374104-3.87463 14.456952s9.374105 6.791018 14.456952 3.87463l64.16054-37.038129 109.989497-63.5356 64.160539-37.038129c5.082848-2.916389 6.791018-9.374105 3.87463-14.456953-2.958051-5.041185-9.374105-6.791018-14.456952-3.87463l-45.828957 26.455807-21.164646-36.621503c-5.874439-10.165696-18.789872-13.623699-28.913905-7.74926zm0 0" fill="none" stroke="#212121" stroke-linecap="round" stroke-linejoin="round" stroke-width="3" transform="matrix(.093759 0 0 .093759 0 20.158175)"/></svg>

<?xml version="1.0" encoding="UTF-8"?>
<svg xmlns="http://www.w3.org/2000/svg" xmlns:xlink="http://www.w3.org/1999/xlink" width="48px" height="48px" viewBox="0 0 48 48" version="1.1">
<defs>
<radialGradient id="radial0" gradientUnits="userSpaceOnUse" cx="450.908936" cy="189.579361" fx="450.908936" fy="189.579361" r="21.166656" gradientTransform="matrix(0.000000261256,-0.117199,-0.210958,-0.000000152308,66.784728,95.392994)">
<stop offset="0" style="stop-color:rgb(0%,0%,0%);stop-opacity:0.313726;"/>
<stop offset="0.222222" style="stop-color:rgb(0%,0%,0%);stop-opacity:0.27451;"/>
<stop offset="1" style="stop-color:rgb(0%,0%,0%);stop-opacity:0;"/>
</radialGradient>
<radialGradient id="radial1" gradientUnits="userSpaceOnUse" cx="450.908936" cy="189.579361" fx="450.908936" fy="189.579361" r="21.166656" gradientTransform="matrix(-0.000000261256,0.117199,0.210958,0.000000152308,-19.155178,-11.291223)">
<stop offset="0" style="stop-color:rgb(0%,0%,0%);stop-opacity:0.313726;"/>
<stop offset="0.222222" style="stop-color:rgb(0%,0%,0%);stop-opacity:0.27451;"/>
<stop offset="1" style="stop-color:rgb(0%,0%,0%);stop-opacity:0;"/>
</radialGradient>
<radialGradient id="radial2" gradientUnits="userSpaceOnUse" cx="450.908936" cy="189.579361" fx="450.908936" fy="189.579361" r="21.166656" gradientTransform="matrix(-0.000000261256,-0.117199,0.210958,-0.000000152308,-19.155178,95.392994)">
<stop offset="0" style="stop-color:rgb(0%,0%,0%);stop-opacity:0.313726;"/>
<stop offset="0.222222" style="stop-color:rgb(0%,0%,0%);stop-opacity:0.27451;"/>
<stop offset="1" style="stop-color:rgb(0%,0%,0%);stop-opacity:0;"/>
</radialGradient>
<radialGradient id="radial3" gradientUnits="userSpaceOnUse" cx="450.908936" cy="189.579361" fx="450.908936" fy="189.579361" r="21.166656" gradientTransform="matrix(0.000000261256,0.117199,-0.210958,0.000000152308,66.784725,-11.291224)">
<stop offset="0" style="stop-color:rgb(0%,0%,0%);stop-opacity:0.313726;"/>
<stop offset="0.222222" style="stop-color:rgb(0%,0%,0%);stop-opacity:0.27451;"/>
<stop offset="1" style="stop-color:rgb(0%,0%,0%);stop-opacity:0;"/>
</radialGradient>
<linearGradient id="linear0" gradientUnits="userSpaceOnUse" x1="255.323059" y1="233.5" x2="255.323044" y2="254.666656" gradientTransform="matrix(0.0200401,0,0,0.093759,18.698079,20.158175)">
<stop offset="0" style="stop-color:rgb(0%,0%,0%);stop-opacity:0.27451;"/>
<stop offset="1" style="stop-color:rgb(0%,0%,0%);stop-opacity:0;"/>
</linearGradient>
<linearGradient id="linear1" gradientUnits="userSpaceOnUse" x1="296.333344" y1="233.5" x2="296.333344" y2="-168.666672" gradientTransform="matrix(0.093759,0,0,0.093759,0,20.158175)">
<stop offset="0" style="stop-color:rgb(74.117649%,74.117649%,74.117649%);stop-opacity:1;"/>
<stop offset="1" style="stop-color:rgb(87.843138%,87.843138%,87.843138%);stop-opacity:1;"/>
</linearGradient>
<linearGradient id="linear2" gradientUnits="userSpaceOnUse" x1="960" y1="1695.118164" x2="960" y2="175.118134" gradientTransform="matrix(0.0214835,-0.0124035,0.0124035,0.0214835,-8.833095,14.155944)">
<stop offset="0" style="stop-color:rgb(25.882354%,25.882354%,25.882354%);stop-opacity:1;"/>
<stop offset="1" style="stop-color:rgb(38.039216%,38.039216%,38.039216%);stop-opacity:1;"/>
</linearGradient>
</defs>
<g id="surface1">
<path style=" stroke:none;fill-rule:nonzero;fill:url(#radial0);" d="M 27.289062 42.050781 L 31.257812 42.050781 L 31.257812 40.066406 L 27.289062 40.066406 Z M 27.289062 42.050781 "/>
<path style=" stroke:none;fill-rule:nonzero;fill:url(#radial1);" d="M 20.339844 42.050781 L 16.371094 42.050781 L 16.371094 44.035156 L 20.339844 44.035156 Z M 20.339844 42.050781 "/>
<path style=" stroke:none;fill-rule:nonzero;fill:url(#radial2);" d="M 20.339844 42.050781 L 16.371094 42.050781 L 16.371094 40.066406 L 20.339844 40.066406 Z M 20.339844 42.050781 "/>
<path style=" stroke:none;fill-rule:nonzero;fill:url(#radial3);" d="M 27.289062 42.050781 L 31.257812 42.050781 L 31.257812 44.035156 L 27.289062 44.035156 Z M 27.289062 42.050781 "/>
<path style=" stroke:none;fill-rule:nonzero;fill:url(#linear0);" d="M 20.339844 41.554688 L 27.289062 41.554688 L 27.289062 44.035156 L 20.339844 44.035156 Z M 20.339844 41.554688 "/>
<path style=" stroke:none;fill-rule:nonzero;fill:url(#linear1);" d="M 23.816406 4.34375 C 34.226562 4.34375 42.667969 12.785156 42.667969 23.199219 C 42.667969 33.609375 34.226562 42.050781 23.816406 42.050781 C 13.402344 42.050781 4.960938 33.609375 4.960938 23.199219 C 4.960938 12.785156 13.402344 4.34375 23.816406 4.34375 Z M 23.816406 4.34375 "/>
<path style=" stroke:none;fill-rule:nonzero;fill:rgb(0%,0%,0%);fill-opacity:0.196078;" d="M 23.816406 42.050781 C 13.371094 42.050781 4.960938 33.640625 4.960938 23.199219 C 4.960938 23.136719 4.960938 23.074219 4.960938 23.011719 C 5.0625 33.371094 13.433594 41.679688 23.816406 41.679688 C 34.199219 41.679688 42.570312 33.371094 42.667969 23.011719 C 42.667969 23.074219 42.667969 23.136719 42.667969 23.199219 C 42.667969 33.640625 34.257812 42.050781 23.816406 42.050781 Z M 23.816406 42.050781 "/>
<path style=" stroke:none;fill-rule:nonzero;fill:rgb(100%,100%,100%);fill-opacity:0.392157;" d="M 23.816406 4.34375 C 13.371094 4.34375 4.960938 12.753906 4.960938 23.199219 C 4.960938 23.257812 4.960938 23.320312 4.960938 23.382812 C 5.0625 13.023438 13.433594 4.714844 23.816406 4.714844 C 34.199219 4.714844 42.570312 13.023438 42.667969 23.382812 C 42.667969 23.320312 42.667969 23.257812 42.667969 23.199219 C 42.667969 12.753906 34.257812 4.34375 23.816406 4.34375 Z M 23.816406 4.34375 "/>
<path style=" stroke:none;fill-rule:nonzero;fill:rgb(12.941177%,12.941177%,12.941177%);fill-opacity:1;" d="M 23.816406 4.203125 C 13.292969 4.203125 4.820312 12.675781 4.820312 23.199219 C 4.820312 33.71875 13.292969 42.191406 23.816406 42.191406 C 34.335938 42.191406 42.808594 33.71875 42.808594 23.199219 C 42.808594 12.675781 34.335938 4.203125 23.816406 4.203125 Z M 23.816406 4.484375 C 34.183594 4.484375 42.527344 12.828125 42.527344 23.199219 C 42.527344 33.566406 34.183594 41.910156 23.816406 41.910156 C 13.445312 41.910156 5.101562 33.566406 5.101562 23.199219 C 5.101562 12.828125 13.445312 4.484375 23.816406 4.484375 Z M 23.816406 4.484375 "/>
<path style=" stroke:none;fill-rule:nonzero;fill:url(#linear2);" d="M 15.753906 21.019531 C 14.800781 21.566406 14.476562 22.777344 15.027344 23.730469 L 17.011719 27.167969 L 12.714844 29.648438 C 12.238281 29.921875 12.078125 30.527344 12.351562 31.003906 C 12.625 31.480469 13.230469 31.640625 13.707031 31.367188 L 19.722656 27.894531 L 30.035156 21.9375 L 36.050781 18.464844 C 36.527344 18.191406 36.6875 17.585938 36.414062 17.109375 C 36.136719 16.636719 35.535156 16.472656 35.058594 16.746094 L 30.761719 19.226562 L 28.777344 15.792969 C 28.226562 14.839844 27.015625 14.515625 26.066406 15.066406 Z M 15.753906 21.019531 "/>
<path style=" stroke:none;fill-rule:nonzero;fill:rgb(100%,100%,100%);fill-opacity:0.235294;" d="M 27.101562 14.796875 C 26.75 14.789062 26.390625 14.875 26.066406 15.066406 L 15.753906 21.019531 C 14.996094 21.453125 14.636719 22.308594 14.796875 23.117188 C 14.902344 22.574219 15.234375 22.078125 15.753906 21.78125 L 26.066406 15.828125 C 27.015625 15.277344 28.226562 15.601562 28.777344 16.554688 L 30.761719 19.992188 L 35.058594 17.507812 C 35.535156 17.234375 36.136719 17.398438 36.414062 17.871094 C 36.433594 17.910156 36.453125 17.949219 36.46875 17.988281 C 36.585938 17.714844 36.574219 17.390625 36.414062 17.109375 C 36.136719 16.636719 35.535156 16.472656 35.058594 16.746094 L 30.761719 19.226562 L 28.777344 15.792969 C 28.414062 15.167969 27.769531 14.8125 27.101562 14.796875 Z M 16.679688 27.355469 L 12.714844 29.648438 C 12.277344 29.898438 12.105469 30.433594 12.292969 30.886719 C 12.375 30.691406 12.519531 30.523438 12.714844 30.410156 L 17.011719 27.929688 Z M 16.679688 27.355469 "/>
<path style=" stroke:none;fill-rule:nonzero;fill:rgb(0%,0%,0%);fill-opacity:0.235294;" d="M 36.320312 18.238281 C 36.246094 18.328125 36.15625 18.40625 36.050781 18.464844 L 30.035156 21.9375 L 19.722656 27.894531 L 13.707031 31.367188 C 13.277344 31.613281 12.746094 31.507812 12.441406 31.136719 C 12.1875 31.445312 12.136719 31.890625 12.351562 32.261719 C 12.625 32.738281 13.230469 32.898438 13.707031 32.625 L 30.035156 23.199219 L 36.050781 19.722656 C 36.527344 19.449219 36.6875 18.84375 36.414062 18.367188 C 36.386719 18.320312 36.355469 18.277344 36.320312 18.238281 Z M 14.863281 23.363281 C 14.6875 23.882812 14.730469 24.472656 15.027344 24.988281 L 16.464844 27.480469 L 17.011719 27.167969 L 15.027344 23.730469 C 14.957031 23.609375 14.902344 23.488281 14.863281 23.363281 Z M 14.863281 23.363281 "/>
<path style="fill:none;stroke-width:3;stroke-linecap:round;stroke-linejoin:round;stroke:rgb(12.941177%,12.941177%,12.941177%);stroke-opacity:1;stroke-miterlimit:4;" d="M 168.025621 9.186925 C 157.859925 15.019701 154.401922 27.935134 160.276361 38.10083 L 181.441007 74.763996 L 135.61205 101.219803 C 130.529202 104.136191 128.821032 110.593907 131.73742 115.676755 C 134.653808 120.759603 141.111525 122.467773 146.194372 119.551385 L 210.354912 82.513256 L 320.344409 18.977656 L 384.504948 -18.060473 C 389.587796 -20.976862 391.295966 -27.434578 388.379578 -32.517426 C 385.421527 -37.558611 379.005473 -39.308444 373.922626 -36.392056 L 328.093669 -9.936249 L 306.929023 -46.557752 C 301.054584 -56.723448 288.139151 -60.181451 278.015118 -54.307012 Z M 168.025621 9.186925 " transform="matrix(0.093759,0,0,0.093759,0,20.158175)"/>
</g>
</svg>
